X:156
T: NUN LAT'T UNS SING'N DAT ABENDLIED, DENN WIE MOETEN GAHN
N: Z0155
O: Europa, Mitteleuropa, Deutschland, Westfalen
R: Erzaehlung, lustige Romanze
M: 2/4
L: 1/16
K: G
D2 | G2A2B2c2 | d2d2d2B2 | c2Bcd2B2 | G6
D2 | G2A2B2c2 | d2d2d2B2 | c2Bcd2B2 | G6
B2 | c2c2c2A2 | B4B2G2 | A2Bcd2B2 | G4z2

